X: 1
T: County Leix
M: 4/4
L: 1/8
R: reel
K: Ddor
(3A,B,C DE ~F3 G|ABcA d3e|^fdef d^cAg|^fded d^cAG|
(3A,B,C DE ~F3 G|ABcA d3e|^fdef d^cAG|EDCD EDD2:|
Ad~d2 ad~d2|ecc2 Gcec|Ad~d2 ad~d2| (3^fga ge dcAG|
Ad~d2 ad~d2|ecc2 Gceg|a^fge dfed|cAGE EDD2:|
